app/dist/common/images/investec-plc-ord-gbp0-0002.svg

<svg height="18" viewBox="0 0 18 18" width="18" xmlns="http://www.w3.org/2000/svg"><path d="m0 0h18v18h-18z" fill="#f0f3fa"/><path d="m13.84 8h-1.22c-.35-1.19-1.3-1.99-2.62-2.29v-.61c1.95.3 3.41 1.37 3.84 2.91zm-8.58 1.31c.12 1.7 1.53 2.97 3.4 3.07v-3.07zm4.07-.62h5.67v.62h-1.05c-.13 1.85-1.74 3.27-3.95 3.6v-.62c1.55-.35 2.63-1.49 2.74-2.98h-3.4v4.69h-.67v-1.03c-2.54-.1-4.49-1.63-4.62-3.66h-1.05v-.61h5.67v-3.1c-1.63.1-2.89 1-3.3 2.39h-1.2c.48-1.72 2.24-2.88 4.5-2.97v-1.02h.67v4.69z"/></svg>

<!-- by TradingView --><svg width="18" height="18" viewBox="0 0 18 18" xmlns="http://www.w3.org/2000/svg"><path fill="#F0F3FA" d="M0 0h18v18H0z"/><path d="M13.84 8h-1.22c-.35-1.19-1.3-1.99-2.62-2.29V5.1c1.95.3 3.41 1.37 3.84 2.91ZM5.26 9.31c.12 1.7 1.53 2.97 3.4 3.07V9.31h-3.4Zm4.07-.62H15v.62h-1.05c-.13 1.85-1.74 3.27-3.95 3.6v-.62c1.55-.35 2.63-1.49 2.74-2.98h-3.4V14h-.67v-1.03c-2.54-.1-4.49-1.63-4.62-3.66H3V8.7h5.67V5.6c-1.63.1-2.89 1-3.3 2.39H4.17c.48-1.72 2.24-2.88 4.5-2.97V4h.67v4.69Z"/></svg>
